iMoney3.0/img/home/icon-bottom-cta.svg

<?xml version="1.0" encoding="UTF-8" standalone="no"?>
<svg width="30px" height="18px" viewBox="0 0 30 18" version="1.1" xmlns="http://www.w3.org/2000/svg" xmlns:xlink="http://www.w3.org/1999/xlink" xmlns:sketch="http://www.bohemiancoding.com/sketch/ns">
    <!-- Generator: Sketch 3.2.2 (9983) - http://www.bohemiancoding.com/sketch -->
    <title>icon-bottom-cta</title>
    <desc>Created with Sketch.</desc>
    <defs></defs>
    <g id="Page-1" stroke="none" stroke-width="1" fill="none" fill-rule="evenodd" sketch:type="MSPage">
        <g id="icon-bottom-cta" sketch:type="MSArtboardGroup" fill="#708EAB">
            <g id="icon-cc-3" sketch:type="MSLayerGroup">
                <path d="M0,1.00247329 C0,0.448822582 0.444946289,0 0.993397683,0 L17.0066023,0 C17.5552407,0 18,0.455760956 18,1.00247329 L18,10.9975267 C18,11.5511774 17.5550537,12 17.0066023,12 L0.993397683,12 C0.444759292,12 0,11.544239 0,10.9975267 L0,1.00247329 Z M0,3 L18,3 L18,5 L0,5 L0,3 Z M2,8 L6,8 L6,10 L2,10 L2,8 Z M7,8 L9,8 L9,10 L7,10 L7,8 Z" id="Rectangle-29" sketch:type="MSShapeGroup"></path>
            </g>
            <path d="M27.9760294,-1.77622131e-15 L20.0408163,9.34211413e-07 C18.9387755,9.34211413e-07 18,0.897960118 18,2.04081726 L18,15.9436817 C18,17.0457225 18.9387755,17.984498 20.0408163,17.984498 L27.9760294,17.9844971 C29.1188865,17.9844971 30.0168457,17.0457216 30.0168457,15.9436807 L30.0168457,2.04081633 C30.0168457,0.897959184 28.9387755,9.34211413e-07 27.7959184,9.34211413e-07 L27.9760294,-1.77622131e-15 Z M23.9183673,17.0408173 C23.1428571,17.0408173 22.4897959,16.5510213 22.4897959,16.0204091 C22.4897959,15.4489805 23.1428571,15.0000009 23.9183673,15.0000009 C24.7346939,15.0000009 25.3469388,15.4489805 25.3469388,16.0204091 C25.3469388,16.5510213 24.7346939,17.0408173 23.9183673,17.0408173 L23.9183673,17.0408173 Z M28,14 L20,14 L20,2.00000093 L28,2.00000093 L28,14 Z" id="📱" sketch:type="MSShapeGroup"></path>
        </g>
    </g>
</svg>

<svg width="30" height="18" viewBox="0 0 30 18" xmlns="http://www.w3.org/2000/svg"><title>icon-bottom-cta</title><desc>Created with Sketch.</desc><g fill="#708EAB"><path d="M0 1.002C0 .45.445 0 .993 0h16.014c.548 0 .993.456.993 1.002v9.996c0 .553-.445 1.002-.993 1.002H.993C.445 12 0 11.544 0 10.998V1.002zM0 3h18v2H0V3zm2 5h4v2H2V8zm5 0h2v2H7V8z"/><path d="M27.976 0H20.04C18.94 0 18 .898 18 2.04v13.904c0 1.102.94 2.04 2.04 2.04h7.936c1.143 0 2.04-.938 2.04-2.04V2.04C30.017.9 28.94 0 27.797 0h.18zm-4.058 17.04c-.775 0-1.428-.49-1.428-1.02 0-.57.653-1.02 1.428-1.02.817 0 1.43.45 1.43 1.02 0 .53-.613 1.02-1.43 1.02zM28 14h-8V2h8v12z"/></g></svg>
